!!!COM:	Pierre de la Rue
**kern	**kern
*part2	*part1
*staff2	*staff1
*clefGv2	*clefG2
*k[]	*k[]
*M2/1	*M2/1
=1-	=1-
0d	0f
=2	=2
1d	1f
1c	1e
=3	=3
1d	1f
1B	1g
=4	=4
0A	1a
.	[1a
=5	=5
1r	2a]
.	4g
.	4f
1e	4g
.	4f
.	4e
.	4d
=6	=6
1.e	2c
.	4e
.	4f
.	4g
.	4a
4d	[2b
4c	.
=7	=7
4d	2b]
4c	.
4B	1a
4A	.
1B	.
.	2g
=8	=8
2A	1a
2c	.
2d	2f
[2e	[2g
=9	=9
2e]	4g]
.	4f
1d	4e
.	4d
.	1e
2c	.
=10	=10
[0d	0d
=11	=11
0d]	1r
.	1d
=12	=12
1r	1.f
1d	.
.	4e
.	4d
=13	=13
1A	2f
.	4e
.	4d
1A	1c
=14	=14
1.c	1.e
4B	4d
4A	4c
=15	=15
2c	2e
4B	2f
4A	.
1G	[1g
=16	=16
1.B	2g]
.	4f
.	4e
.	[1d
4A	.
4G	.
=17	=17
2B	2d]
2c	2e
1d	2f
.	2g
=18	=18
1.A	2a
.	4g
.	4f
.	1e
2B	.
=19	=19
2c	2r
2d	2b
2.e	2cc
.	4b
8dL	4a
8cJ	.
=20	=20
2.B	2.g
4A	4f
4B	4g
4c	4a
2d	2b
=21	=21
2A	2cc
2c	2.a
1B	.
.	4g
.	2g
=22	=22
2r	1.a
1A	.
2B	2g
=23	=23
2c	2e
2.d	2.f
4c	4e
4B	[2g
4A	.
=24	=24
2G	2g]
1c	4f
.	4e
.	1d
2B	.
=25	=25
0c	1c
.	2r
.	2e
=26	=26
2r	1f
2A	.
2B	2g
2c	[2a
=27	=27
2.d	4a]
.	4g
.	4f
4c	4e
4B	2d
4A	.
2G	2e
=28	=28
2A	2c
2F	1f
1G	.
.	2e
=29	=29
1F	0f
2r	.
2A	.
=30	=30
2.A	2r
.	2a
4B	.
2c	[1a
[2d	.
=31	=31
4d]	2a]
4c	.
4A	4g
4B	4f
4c	2e
4B	.
[2d	[2f
=32	=32
4d]	4f]
4c	4e
4c	4e
4B	4d
2A	2c
[2B	[2g
=33	=33
4B]	4g]
4A	4f
4G	4e
4F	4d
4G	4e
4F	4d
[2A	2f
=34	=34
4A]	4e
4G	4d
2F	1d
1E	.
.	2c
=35	=35
0D	0d
==	==
*-	*-
